icons/folder-shared.svg

<svg xmlns="http://www.w3.org/2000/svg" viewBox="0 0 32 32">
  <path d="M13.84376,7.53645l-1.28749-1.0729A2,2,0,0,0,11.27591,6H4A2,2,0,0,0,2,8V24a2,2,0,0,0,2,2H28a2,2,0,0,0,2-2V10a2,2,0,0,0-2-2H15.12412A2,2,0,0,1,13.84376,7.53645Z" style="fill: #ab47bc"/>
  <path d="M28,26a2,2,0,0,0,2-2V18a2,2,0,0,0-2-2H18a2,2,0,0,0-2,2v6a2,2,0,0,0,2,2H14v2H32V26Zm-5-6V18l4,2.79761L23,24V22a4.12206,4.12206,0,0,0-4,2C19.44751,21.99683,19.88776,20.40466,23,20Z" style="fill: #e1bee7;fill-rule: evenodd"/>
</svg>

<svg xmlns="http://www.w3.org/2000/svg" viewBox="0 0 32 32"><path fill="#ab47bc" d="m13.844 7.536-1.288-1.072A2 2 0 0 0 11.276 6H4a2 2 0 0 0-2 2v16a2 2 0 0 0 2 2h24a2 2 0 0 0 2-2V10a2 2 0 0 0-2-2H15.124a2 2 0 0 1-1.28-.464Z"/><path fill="#e1bee7" fill-rule="evenodd" d="M28 26a2 2 0 0 0 2-2v-6a2 2 0 0 0-2-2H18a2 2 0 0 0-2 2v6a2 2 0 0 0 2 2h-4v2h18v-2Zm-5-6v-2l4 2.798L23 24v-2a4.122 4.122 0 0 0-4 2c.448-2.003.888-3.595 4-4Z"/></svg>
